web/workspace/public/assets/icons/task-list.svg

<svg height="30" viewBox="0 0 30 30" width="30" xmlns="http://www.w3.org/2000/svg"><path d="m9 6v2h20v-2zm-8 4h6v-6h-6zm2-4h2v2h-2zm6 10h20v-2h-20zm-8 2h6v-6h-6zm2-4h2v2h-2zm6 10h20v-2h-20zm-8 2h6v-6h-6zm2-4h2v2h-2z"/></svg>

<svg xmlns="http://www.w3.org/2000/svg" width="30" height="30" viewBox="0 0 30 30"><path d="M9 6v2h20V6H9zm-8 4h6V4H1v6zm2-4h2v2H3V6zm6 10h20v-2H9v2zm-8 2h6v-6H1v6zm2-4h2v2H3v-2zm6 10h20v-2H9v2zm-8 2h6v-6H1v6zm2-4h2v2H3v-2z"/></svg>
